navigator-task/img/icons/gas.svg

<svg width="59" height="51" viewBox="0 0 59 51" fill="none" xmlns="http://www.w3.org/2000/svg">
<path fill-rule="evenodd" clip-rule="evenodd" d="M56.05 33.3462H39.1748C38.7841 32.185 37.7074 31.3847 36.3833 31.3847H33.5317V26.8566C39.1523 25.127 43.2667 19.885 43.2667 13.7308C43.2667 6.17878 37.0716 0 29.5 0C21.9284 0 15.7333 6.17878 15.7333 13.7308C15.7333 19.9209 19.8959 25.1874 25.5666 26.886V31.3847H22.6167C21.2926 31.3847 20.2159 32.185 19.8252 33.3462H2.94997C1.27828 33.3462 0 34.6212 0 36.2885V46.0962C0 47.7635 1.27828 49.0384 2.94997 49.0384H19.8252C20.2159 50.1997 21.2926 51 22.6167 51H36.3833C37.7074 51 38.7841 50.1997 39.1748 49.0384H56.05C57.7217 49.0384 59 47.7635 59 46.0962V36.2885C59.0001 34.6212 57.7217 33.3462 56.05 33.3462ZM17.7 13.7308C17.7 7.25765 23.0101 1.96156 29.5 1.96156C35.9899 1.96156 41.3 7.25777 41.3 13.7308C41.3 19.1296 37.606 23.7088 32.6146 25.0804C32.4941 25.0617 32.3737 25.0677 32.2533 25.1077C30.4833 25.5 28.7133 25.5 26.8449 25.1077C26.7115 25.0633 26.5582 25.0609 26.4119 25.0876C21.4072 23.7251 17.7 19.1392 17.7 13.7308ZM27.5333 27.3198C28.176 27.4126 28.8326 27.4616 29.5 27.4616C30.1674 27.4616 30.8239 27.4126 31.4667 27.3198V31.3847H27.5333V27.3198ZM1.96668 46.0963V38.2503V36.2887C1.96668 35.7003 2.35997 35.308 2.94997 35.308H19.6666V47.0772H2.94997C2.35997 47.077 1.96668 46.6847 1.96668 46.0963ZM22.6167 49.0386C22.0267 49.0386 21.6334 48.6463 21.6334 48.0578V34.3269C21.6334 33.7385 22.0267 33.3462 22.6167 33.3462H26.55H32.4501H36.3834C36.9734 33.3462 37.3667 33.7385 37.3667 34.3269V48.0577C37.3667 48.6462 36.9733 49.0386 36.3833 49.0386H22.6167ZM56.05 47.077H39.3334V35.3078H56.05C56.64 35.3078 57.0333 35.7 57.0333 36.2885V46.096C57.0334 46.6847 56.64 47.077 56.05 47.077ZM29.457 14.1429C29.7671 14.1429 29.9738 14.04 30.1805 13.8343L33.2812 10.7486C33.6946 10.3372 33.6946 9.72005 33.2812 9.30854C32.8678 8.89715 32.2477 8.89715 31.8341 9.30854L28.7334 12.3942C28.32 12.8056 28.32 13.4228 28.7334 13.8343C28.9403 14.04 29.1469 14.1429 29.457 14.1429ZM36.6058 14.2169C36.6058 15.4463 36.4681 16.1386 36.2934 16.537C36.1583 16.8449 35.9938 17.0071 35.6704 17.1472C35.2561 17.3266 34.5913 17.457 33.4715 17.5195C32.5109 17.5731 31.3657 17.5722 29.944 17.571H29.9439C29.7305 17.5709 29.5109 17.5707 29.2847 17.5707C29.0452 17.5707 28.8132 17.5709 28.5883 17.571L28.5843 17.571C27.0812 17.5722 25.8928 17.5731 24.9141 17.5194C23.7677 17.4565 23.1325 17.325 22.7599 17.1572C22.4962 17.0385 22.3624 16.9086 22.2414 16.6C22.0791 16.1856 21.9635 15.4756 21.9635 14.2169C21.9635 9.82656 25.3283 6.42857 29.2847 6.42857C33.241 6.42857 36.6058 9.82656 36.6058 14.2169ZM38.3285 14.2169C38.3285 19.2928 36.2328 19.2909 29.9399 19.2854H29.9379C29.725 19.2852 29.5073 19.285 29.2847 19.285C29.0466 19.285 28.8144 19.2852 28.588 19.2854C21.9326 19.2909 20.2409 19.2924 20.2409 14.2169C20.2409 8.96875 24.2899 4.71429 29.2847 4.71429C34.2794 4.71429 38.3285 8.96875 38.3285 14.2169Z" fill="#675A54"/>
</svg>

<svg width="59" height="51" fill="none" xmlns="http://www.w3.org/2000/svg"><path fill-rule="evenodd" clip-rule="evenodd" d="M56.05 33.346H39.175c-.39-1.161-1.468-1.961-2.792-1.961h-2.851v-4.528c5.62-1.73 9.735-6.972 9.735-13.126C43.267 6.179 37.072 0 29.5 0c-7.572 0-13.767 6.179-13.767 13.73 0 6.19 4.163 11.457 9.834 13.156v4.499h-2.95c-1.324 0-2.401.8-2.792 1.961H2.95C1.278 33.346 0 34.621 0 36.29v9.807c0 1.668 1.278 2.942 2.95 2.942h16.875C20.215 50.2 21.293 51 22.617 51h13.766c1.324 0 2.401-.8 2.792-1.962H56.05c1.672 0 2.95-1.274 2.95-2.942V36.29c0-1.668-1.278-2.943-2.95-2.943zM17.7 13.731c0-6.473 5.31-11.77 11.8-11.77 6.49 0 11.8 5.297 11.8 11.77 0 5.399-3.694 9.978-8.685 11.35a.758.758 0 00-.362.027c-1.77.392-3.54.392-5.408 0a.888.888 0 00-.433-.02C21.407 23.725 17.7 19.139 17.7 13.73zm9.833 13.589a13.755 13.755 0 003.934 0v4.065h-3.934V27.32zM1.967 46.096V36.29c0-.589.393-.981.983-.981h16.717v11.77H2.95c-.59-.001-.983-.393-.983-.982zm20.65 2.943c-.59 0-.984-.393-.984-.981V34.327c0-.588.394-.98.984-.98h13.766c.59 0 .984.392.984.98v13.73c0 .59-.394.982-.984.982H22.617zm33.433-1.962H39.333v-11.77H56.05c.59 0 .983.393.983.981v9.808c0 .589-.393.981-.983.981zM29.457 14.143c.31 0 .517-.103.723-.309l3.101-3.085a.991.991 0 000-1.44 1.003 1.003 0 00-1.447 0l-3.1 3.085a.991.991 0 000 1.44c.206.206.413.309.723.309zm7.149.074c0 1.23-.138 1.922-.313 2.32-.135.308-.3.47-.623.61-.414.18-1.079.31-2.199.373-.96.053-2.105.052-3.527.051h-1.36c-1.503.001-2.691.002-3.67-.052-1.146-.063-1.782-.194-2.154-.362-.264-.119-.398-.248-.519-.557-.162-.414-.277-1.124-.277-2.383 0-4.39 3.364-7.788 7.32-7.788 3.957 0 7.322 3.398 7.322 7.788zm1.722 0c0 5.076-2.095 5.074-8.388 5.068h-.002a690.52 690.52 0 00-1.35 0c-6.655.006-8.347.007-8.347-5.068 0-5.248 4.049-9.503 9.044-9.503 4.994 0 9.043 4.255 9.043 9.503z" fill="#675A54"/></svg>
